img/why/2.svg

<svg width="30" height="30" viewBox="0 0 30 30" fill="none" xmlns="http://www.w3.org/2000/svg">
<path d="M30 8.82353L26.6912 4.41176L30 0H18.5294V15.8824H15.8824V17.6471H10.5882V19.4118H5.29412V21.1765H0V30H22.9412V15.8824H20.2941V8.82353H30ZM12.3529 19.4118H15.8824V28.2353H12.3529C12.3529 27.1289 12.3529 20.5046 12.3529 19.4118ZM7.05882 21.1765H10.5882V28.2353H7.05882C7.05882 27.6026 7.05882 22.1659 7.05882 21.1765ZM1.76471 22.9412H5.29412V28.2353H1.76471V22.9412ZM21.1765 28.2353H17.6471C17.6471 27.7645 17.6471 18.1086 17.6471 17.6471H21.1765V28.2353ZM20.2941 1.76471H26.4706L24.4853 4.41176L26.4706 7.05882H20.2941V1.76471Z" fill="white"/>
<path d="M8.94348 10.5443L10.8106 12.4113L15 8.28449V9.99596H16.7647V5.29443H12.0631V7.05914H13.7292L10.82 9.92496L8.94348 8.04855L1.43701 15.555L2.68484 16.8028L8.94348 10.5443Z" fill="white"/>
</svg>

<svg width="30" height="30" viewBox="0 0 30 30" fill="none" xmlns="http://www.w3.org/2000/svg"><path d="M30 8.824l-3.309-4.412L30 0H18.53v15.882h-2.648v1.765h-5.294v1.765H5.294v1.765H0V30h22.941V15.882h-2.647V8.824H30zM12.353 19.412h3.53v8.823h-3.53v-8.823zm-5.294 1.765h3.53v7.058h-3.53v-7.058zM1.765 22.94h3.53v5.294h-3.53V22.94zm19.412 5.294h-3.53V17.647h3.53v10.588zm-.883-26.47h6.177l-1.986 2.647 1.986 2.647h-6.177V1.765z" fill="#fff"/><path d="M8.943 10.544l1.868 1.867L15 8.284v1.712h1.765V5.294h-4.702V7.06h1.666L10.82 9.925 8.943 8.049l-7.506 7.506 1.248 1.248 6.258-6.259z" fill="#fff"/></svg>
